X: 1
T: the Rakes of Kildare
O: Trad.
R: jig
Z: 2014 John Chambers <jc:trillian.mit.edu>
S: Image from George Meikle, via Sylvia Miskoe
N: Part of a set for Berwick Johnnie, in a dance program from 2012
N: The sharp in bars 5 and 21 is missing in bar 2.
M: 6/8
L: 1/8
K: Ador
A |\
"Am"EAA AGA | Bcd e2f | "G"gfg "C"ege | "G"dBG G2A |\
"Am"EAA A"^#"GA | Bcd "C"e2"D7"f | "G"gfg edB | "Am"A3 A2 :|
e |\
"Am"aea aea | aea "D7"b2a | "G"gfg "C"ege | "G"dBG G2a |\
"Am"aea aea | aea "D7"b2a | "G"gfg dBG | "Am"A3 A2 |]
e |\
"Am"aea aea | aea "D7"b2a | "G"gfg "C"ege | "G"dBG G2A |\
"Am"EAA A"^#"GA | Bcd "C"e2"D7"f | "G"gfg e[gd]B | "Am"A3 A2 |]
